X:1
T:Title
%%score [ ( 1 2 ) ( 3 4 ) ]
L:1/8
Q:1/4=100
M:4/4
K:Eb
V:1 treble nm="Midi_20"
V:2 treble 
V:3 bass nm="Midi_20"
V:4 bass 
V:1
"^Thou art the way""^Charles Wesley (the younger)\n(1757-1834)""^George Washington Doane\n(1799-1859)""^Epworth (C.M.)" E2 | %1
 G2 B2 e3 G | Fc BA G2 B2 | e2 d2 cB =A2 | B6 || B2 | A2 G2 c3 A | G2 F2 B2 B2 | e2 EF G2 F2 | %9
 E6 |] %10
V:2
 E2 | E2 F2 E2 E2 | E2 D2 E2 E2 | E2 F2 G2 F2 | F6 || G2 | F2 =E2 F3 F | _E2 D2 E2 E2 | %8
 E2 E2 E2 D2 | E6 |] %10
V:3
"^1. Thou art the Way; to thee alone\nFrom sin and death we flee;\nAnd he who would the Father seek\nMust seek him, Lord, by thee.\n\n2. Thou art the Truth; thy word alone\nTrue wisdom can impart;\nThou only canst inform the mind,\nAnd purify the heart." G,2 | %1
 B,2 B,2 G,2 G,2 | A,2 F,2 G,2 G,2 | G,=A, B,2 E2 C2 | %4
"^3. Thou art the Life; the rending tomb\nProclaims thy conquering arm;\nAnd those who put their trust in thee\nNor death nor hell shall harm.\n\n4. Thou art the Way, the Truth, the Life,\nGrant us that way to know,\nThat truth to keep, that life to win,\nWhose joys eternal flow." D6 || %5
 D2 | C2 C2 C3 C | B,2 B,2 B,2 G,2 | G,2 C2 B,3 A, | G,6 |] %10
V:4
 E,2 | E,2 D,2 C,2 B,,2 | A,,2 B,,2 E,2 E,D, | C,2 D,2 E,2 F,2 | B,,6 || G,2 | C2 B,2 A,2 G,F, | %7
 B,2 A,2 G,2 E,2 | C,2 A,,2 B,,2 B,,2 | E,6 |] %10

